build/images/block_3/quotes.svg

<svg width="144px" height="178px" viewBox="0 0 144 178" version="1.1" xmlns="http://www.w3.org/2000/svg" xmlns:xlink="http://www.w3.org/1999/xlink">
  <g stroke="none" stroke-width="1" fill="none" fill-rule="evenodd">
    <g transform="translate(-399.000000, -414.000000)" fill="#FFCDC3" fill-rule="nonzero">
      <g transform="translate(120.000000, 144.000000)">
        <g transform="translate(279.000000, 270.000000)">
            <path d="M31.8191464,13.2750921 C55.8073763,11.1763939 69.0440716,24.329802 71.529232,52.7353162 C73.3363616,73.3909012 60.0442448,113.862843 31.6528817,174.151143 L30.7879157,175.984127 L9.19850868,177.872955 L41.3798114,78.9299797 L40.6257956,78.9927179 C15.8590107,80.9463786 2.55028088,71.346554 0.699606069,50.193244 C0.127799233,43.657462 1.20014313,37.7377364 3.91663777,32.4340673 C6.63313241,27.1303981 10.3845011,22.7493906 15.170744,19.2910446 C19.9569868,15.8326986 25.5064543,13.8273811 31.8191464,13.2750921 Z M104.624434,3.20530951 C108.666833,1.14582756 113.112666,0.285633571 117.961936,0.62472754 C136.389161,1.91328462 144.835398,13.5315446 143.300647,35.4795076 C142.184625,51.439367 127.244412,80.6840541 98.4800097,123.213569 L97.6041297,124.506408 L81.0196273,123.346707 L117.306258,51.8134961 L116.727428,51.7705318 C97.7277802,50.2777035 88.7994134,41.3590721 89.9423276,25.0146378 C90.2954562,19.964664 91.8201566,15.582153 94.5164288,11.8671048 C97.212701,8.15205655 100.582036,5.26479146 104.624434,3.20530951 Z" />
        </g>
      </g>
    </g>
  </g>
</svg>

<svg width="144" height="178" xmlns="http://www.w3.org/2000/svg"><path d="M31.82 13.275c23.987-2.099 37.224 11.055 39.71 39.46 1.806 20.656-11.486 61.128-39.877 121.416l-.865 1.833-21.59 1.889L41.38 78.93l-.754.063C15.859 80.946 2.55 71.347.7 50.193c-.572-6.536.5-12.455 3.217-17.759 2.716-5.304 6.468-9.685 11.254-13.143s10.335-5.464 16.648-6.016zm72.804-10.07c4.043-2.06 8.489-2.92 13.338-2.58 18.427 1.288 26.873 12.907 25.339 34.855-1.116 15.96-16.057 45.204-44.821 87.734l-.876 1.292-16.584-1.16 36.286-71.533-.579-.042c-19-1.493-27.928-10.412-26.785-26.756.353-5.05 1.878-9.433 4.574-13.148 2.697-3.715 6.066-6.602 10.108-8.662z" fill="#FFCDC3"/></svg>
